X: 45
T:Pont Menai
T:The Menai Bridge Hornpipe
M:C
L:1/8
Q:180
S:various sources
R:Hornpipe
A:Wales
Z:brian_martin12345@yahoo.com
K:G
d>c|B>AB>c B>dg>d|c>BA>G F>Ad>A|B>AB>c B>dg>b|a>gf>ed2d>c|!
B>AB>c B>dg>d|c>BA>G F>Ad>A|B>dG>B A>cF>A|G2B2G2:||!
B>c|d>ef>g a>gf>e|g>ab>c' b>gb>c'|b>ag>a g>fe>f|d2a2a2d>c|!
B>AB>c B>dg>d|c>BA>G F>Ad>A|B>dG>B A>cF>A|G2B2G2:||
